!!! OTL: Die-, Nian/,De,En-,Qing/ (Parents loving-kindness)
!!! YEC: Copyright 2001, Chia-wei Lee
!! For Voice Only
**kern	**silbe
*clefG2	*LXhinhua
*E:	*ping-ying
*M4/4	*
=2	=2
8g#	Tien-
16f#	Shan\
16g#	De
8b	Sing-
[8b	Sing-
2b]	|
=3	=3
(16g#	Shu^
16f#)	|
(16e	Bu\
16f#	|
8g#)	Qing-
[8f#	|
2f#]	|
=4	=4
(8e	Hei^
8f#)	|
(16f#	Zhong-
16e	|
16c#	|
16B)	|
2c#	Chui^
=5	=5
(16e	Liang/
16c#)	|
(16B	Bu\
16c#)	|
(8e	Jin\
8f#)	|
2B	|
=6	=6
16cc#	Hei^
16b	Chui^
(16g#	Huei\
16e)	|
16f#	Zhang^
16g#	|
[8f#	|
2f#]	|
=7	=7
16e	Yie^
16B	|
16e	Huei\
16f#	|
8g#	Lou\
[8b	O
2b]	|
=8	=8
8b	Sing-
8g#	Sing-
6f#	Hu-
6g#	|
6f#	|
2e	An\
=9	=9
(8g#	You\
8b)	|
16g#	Hu-
16f#	|
16e	Ming/
16f#	|
2e	|
*-	*-
